X:1
T:Title
%%score [ 1 2 3 4 ]
L:1/8
Q:1/4=120
M:4/4
K:Ab
V:1 treble nm="MusicXML Part"
V:2 treble nm="MusicXML Part"
V:3 treble-8 nm="MusicXML Part"
V:4 bass nm="MusicXML Part"
V:1
!p!"^Gute Nacht""^4 Gesänge, Op. 59, No. 4 (1846)" c2 | c3 B AABc | %2
w: Die|gu- te Nacht, die ich dir|
 e3 d"^R. Schumann, Op. 59. Nr. 4\nText: F. Rückert" c2 c2- | %3
w: sa * ge, Freund,|
"^Mudik: Robert Schumann (1810-1856)\nText: Friedrich Rückert (1788-1866)" c2 BA f2 f2- | %4
w: * hör- est du! Freund,|
"^____" f2 e=d e2 c2 | c3 B AABc | e3 d c2 f2- | f2 c=d e2 [ca]2- |"^____" [ca]2 c=d e2 e2 | %9
w: * hör- est du! Ein|En- gel, der die Bot- schaft|tra * ge, geht|* ab und zu geht|* ab und zu. Er|
 e>B B2- BBBc | d2 d2 z2!<(! d2 | f3!<)!!>(! e d2 c2!>)! | d2 F4 F>F | F3 F G3 G | %14
w: bringt sie dir * und hat mir|wie- der den|Gruß, den Gruß ge-|bracht: dir sa- gen|auch des Freun- des|
 A2 A2!pp! B2 FF | B4 B2"^rit." EE | A4 z4 |] %17
w: Lie- der jetzt gu- te|Nacht, jetzt gu- te|Nacht.|
V:2
!p! E2 | F3 G EEEE | E4 E2 z2 | z4 z2 A2- |"^____" A2 AA G2 E2 | F3 G EEEE | E4 E2 z2 | z4 z2 A2- | %8
w: Die|gu- te Nacht, die ich dir|sa- ge,|Freund,|* hör- est du! Ein|En- gel, der die Bot- schaft|tra- ge,|geht|
"^____" A2 AA G2 G2 | G>_G G2- GGGE | F2 F2 z2!<(! F2 | _G3!<)!!>(! G F2 E2!>)! | D2 D4 D>D | %13
w: * ab und zu. Er|bringt sie dir * und hat mir|wie- der den|Gruß, den Gruß ge-|bracht: dir sa- gen|
 D3 D D3 D | C2 C2 z4 | z4!pp! =D2"^rit." _DD | A4 z4 |] %17
w: auch des Freun- des|Lie- der|jetzt gu- te|Nacht.|
V:3
!p! A2 | A3 B cAGA | A3 B A2 z2 | z4 z2 c2- |"^____" c2 BB B2 A2 | A3 B cAGA | A3 B A2 z2 | %7
w: Die|gu- te Nacht, die ich dir|sa * ge,|Freund,|* hör- est du! Ein|En- gel, der die Bot- schaft|tra * ge,|
 z4 z2 c2- |"^____" c2 cB B2 B2 | B>B B2- BBB=A | B2 B2 z2!<(! B2 | B3!<)!!>(! B B2 =A2!>)! | %12
w: geht|* ab und zu. Er|bringt sie dir * und hat mir|wie- der den|Gruß, den Gruß ge-|
 B2 B4 B>B | B3 B B3 B | A2 A2 z4 | z4!pp! A2"^rit." GG | A4 z4 |] %17
w: bracht: dir sa- gen|auch des Freun- des|Lie- der|jetzt gu- te|Nacht.|
V:4
!p! A,,2 | D,3 D, C,C,B,,A,, | F,3 G, A,2 z2 | z4 z2 F,2- | F,2 B,B, E,2 A,2 | D,3 D, C,C,B,,A,, | %6
 F,3 G, A,2 z2 | z4 z2 F,2- | F,2 F,B, E,2 E,2 | E,>E, E,2- E,E,E,_G, | %10
 B,,2 B,,2 z2!<(! B,,D,!<)! | E,3!>(! E, F,2 F,,2!>)! | B,,2 B,4 B,>B, | B,3 B, =E,3 E, | %14
 F,2 F,2 z4 | z4!pp! F,2"^rit." E,E, | [A,,E,]4 z4 |] %17

